!!! OTL: Literature66
!!! Chapter: 5
!!! Section: II
!!! Page: 359
!!! Mode: 
!!! Encoder: ESM
**kern
*staff1
*I"Piano
=1-
*clefG2
*k[b-]
*F:
*M6/8
4.f/
4c/
8a/
=2
2.g/
=3
4.g/
4c/
8b-\
=4
2.a/
=5
4.a/
4b-\
8cc\
=6
[4.dd\
4dd\]
8g/
=7
[4.g/
8g/L]
8a/
16b-/L
16a/JJ
=8
2.a/
=9
4.a/
4b-\
8cc\
=10
[4.dd\
4dd\]
8g/
=11
[4.g/
8g/L]
8a/
16b-/L
16a/JJ
=12
2.f/
==
*-
